X: 1
T: Gooseberry Fair
M: 4/4
L: 1/8
R: reel
K: Dmaj
|:c|df ~f2 edBd|AF ~F2 EDB,A,|DF ~F2 DFAB|dfed BAFA|
df ~f2 edBd|AF ~F2 EDB,A,|DF ~F2 DFAB|dfed Bd d:|
|:c|df ~f2 af ~f2|defd edBA|df ~f2 geaf|gfeg fddc|
df ~f2 af ~f2|defd edBA|df ~f2 geaf|gfeg fd d:|
